X:1
T:Diadem, CM
T:Diadem, CM
T:James Ellor, 1838
T:Public Domain Courtesy of the Cyber Hymnal™
C:James Ellor, 1838
Z:Public Domain
Z:Courtesy of the Cyber Hymnal™
%%score ( 1 2 ) ( 3 4 )
L:1/8
Q:1/4=115
M:3/4
K:A
V:1 treble 
V:2 treble 
V:3 bass 
V:4 bass 
V:1
 [CE]2 | [EA]4 [EB]2 | (c>d e2) [FA]2 | ([FB]2 [EA]2) [DG]2 | [CA]4 ([EG][DF]) | %5
 [CE]3 [CE] [CE][CE] | (z2 E2) [EA]2 | [DF]2 [Fd]2 [Fd]2 | [Ec]4 [DB]2 | [CA]4 ([CA][DB]) | %10
 [Ec]4 [Ec]2 | (c2 B2) [FA]2 | [FB]2 [EA]2 [DG]2 | ([CA]>[DB] [Ec]2) [=Ge]2 | [Fd]3 [Ec][DB][Fd] | %15
 [Ec]3 [DB][CA][Ec] | [DB]3 [CA][B,G][DB] | [CA]2 [CA]2 z2 | [Fd]2 [Fd]2 z2 | [EB]2 [EB]2 z2 | %20
 [Ec]2 [Ec]2 [Ee]2 | (A>B c2) [DB]2 | [CA]4 [B,G]2 | [CA]4 |] %24
V:2
 x2 | x6 | E4 x2 | x6 | x6 | x6 | C4 x2 | x6 | x6 | x6 | x6 | ^E4 x2 | x6 | x6 | x6 | x6 | x6 | %17
 x6 | x6 | x6 | x6 | E4 x2 | x6 | x4 |] %24
V:3
 [A,,A,]2 | ([A,,C]2 [C,A,]2) [E,G,]2 | (A,->B, C2) [F,C]2 | ([D,D]2 [E,C]2) [E,B,]2 | %4
 [A,,A,]4 [A,,A,]2 | [A,,A,]3 [A,,A,] [A,,A,][A,,A,] | [A,,A,]4 [C,A,]2 | [D,A,]4 [B,,A,]2 | %8
 [E,A,]4 [E,G,]2 | [A,,A,]4 [A,,A,]2 | A,4 A,2 | [G,C]4 [F,C]2 | [D,D]2 [E,C]2 [E,B,]2 | %13
 [A,,A,]4 [A,C]2 | [D,D]2 [D,A,]2 z2 | [A,,A,]2 [A,,A,]2 z2 | [E,G,]2 [E,G,]2 z2 | A,2 A,2 x2 | %18
 A,2 A,2 x2 | G,2 G,2 (3:2:1[F,G,] x4/3 | A,2 A,2 [A,C]2 | (C>B, A,2) [D,F,]2 | E,4 E,2 | %23
 [A,,E,]4 |] %24
V:4
 x2 | x6 | x3/2 A,3 x3/2 | x6 | x6 | x6 | x6 | x6 | x6 | x6 | A,4 A,2 | x6 | x6 | x6 | x6 | x6 | %16
 x6 | A,3 (3(G,F,E,) x | D,3 (3(C,{B,,,}B,,A,,) x |{A,,,} E,3 (3:2:2(G,E,) x5/3 | x6 | A,4 x2 | %22
 E,4 E,2 | x4 |] %24

